X:0908
T:The Morgan Rattler.
M:6/8
L:1/8
Q:3/8=120
I: (1) :| (2) || (1) :| (2) || :: :|
Z:Jack Campin * www.campin.me.uk * 2009
K:D
B|:AGF   EFG|(F/G/A)F D2B   | AGF    EFA|   B2A Bcd |
   AGF   EFG|(F/G/A)F D2f/g/| afd    ecA|[1 B2A Bcd:|\
                                         [2 B2A B2c||
   d2e   fdB| c2d     ecA   | def    e2d|  Tf2e fga |
   d2e   fed| cea     ecA   | gfd    ecA|[1 B2A Bcd:|\
                                         [2 B2A B2c||
   FGF   FED| EFE     E2D   | FGF    FED|   BcB Bcd |
   FGF   FED| EFE     E2f/g/| afd    ecA|  TB2A Bcd:|
 .D2z/d/ dcd|.E2z/e/  efg   |.D2z/d/ dcd|  TB2A Bcd |
 .D2z/d/ dcd|.E2z/e/  efg   | agf    edc|  TB2A Bcd:|

